archdroid-icon-theme/Archdroid-LightGreen/mimetypes/scalable/application-x-jar.svg

<svg fill="#8BC34A" height="48" viewBox="0 0 48 48" width="48" xmlns="http://www.w3.org/2000/svg"><path d="m12 6c-.93 0-1.760547.429844-2.310547 1.089844l-2.769531 3.359375c-.58.7-.919922 1.580781-.919922 2.550781v25c0 2.21 1.79 4 4 4h28c2.21 0 4-1.79 4-4v-25c0-.97-.340156-1.850781-.910156-2.550781l-2.769531-3.359375c-.56-.66-1.390313-1.089844-2.320313-1.089844zm-.119141 2h24l1.869141 2h-27.5zm14.832032 3.726563c0 .000001 2.818175 2.81903-2.671875 7.152343-4.402659 3.477412-1.004183 5.458945-.001953 7.72461-2.57016-2.318694-4.455882-4.360084-3.191407-6.259766 1.856851-2.788156 7.001637-4.140205 5.865235-8.617187zm3.396484 5.539062c-5.913862 3.429662-4.821306 4.423821-3.396484 6.425781 1.525 2.14773-1.794922 3.861328-1.794922 3.861328s1.650603-1.354744.341797-2.861328c-4.433491-5.108891 4.849669-7.425781 4.849609-7.425781zm1.783203 9.128906c2.561531.122831 3.731909 3.769276-2.21289 5.332032-.000062 0 .077983-.069831.101562-.132813 5.088014-2.643226 2.733893-5.183965 1.091797-4.841797-.401556.0838-.580078.15625-.580078.15625s.148713-.233144.433594-.333984c.406078-.142695.800082-.197235 1.166015-.179688zm-11.289062.25586c.216229-.005657.335937.001953.335937.001953s-4.929208 1.170152-1.746094 1.595703c1.344438.179902 4.024688.139168 6.521485-.070313 2.039933-.171204 4.085937-.537109 4.085937-.537109s-.71789.306983-1.238281.662109c-5.005592 1.316544-14.674342.70342-11.890625-.642578 1.764846-.853786 3.282952-.992795 3.931641-1.009765zm-.8125 3.078125s-1.161627.859527.613281 1.042968c2.295779.237011 4.108212.256238 7.246094-.347656 0 0 .433357.441272 1.115234.681641-6.417816 1.877247-13.566587.147088-8.974609-1.376953zm.65039 2.96875s-1.035307.603223.738282.80664c2.14899.245349 3.245817.209225 5.613281-.238281 0 0 .624622.390607 1.49414.728516-5.308948 2.274544-12.015249-.131859-7.845703-1.296875zm-2.697265 1.96875c.255968.009847.467063.057631.601562.152343 0 0-.340472-.023264-.935547.105469-.57072.123274-2.384786.705841-1.417968 1.126953 2.691395 1.170716 12.381694.890836 15.445312-.037109 1.611143-.488778.84375-1.121094.84375-1.121094 2.807112 1.266635-6.098402 3.811033-16.921875 2.056641-3.472832-.563575.592986-2.352136 2.384766-2.283203zm16.255859 1.607422c-.177503 2.310656-7.677749 2.796549-12.560547 2.484375-3.209088-.206537-3.833984-.722657-3.833984-.722657 3.048502.503355 8.191388.595243 12.359375-.189453 3.694506-.695015 4.035156-1.572265 4.035156-1.572265z" fill="#5382a1"/></svg>

<svg fill="#8BC34A" height="48" version="1.1" viewBox="0 0 48 48" width="48" xmlns="http://www.w3.org/2000/svg"><path d="M12 6C11.07 6 10.239453 6.429844 9.689453 7.089844L6.919922 10.449219C6.339922 11.149219 6 12.03 6 13L6 38C6 40.21 7.79 42 10 42L38 42C40.21 42 42 40.21 42 38L42 13C42 12.03 41.659844 11.149219 41.089844 10.449219L38.320313 7.089844C37.760313 6.429844 36.93 6 36 6L12 6zM11.880859 8L35.880859 8 37.75 10 10.25 10 11.880859 8zM26.712891 11.726563C26.712891 11.726564 29.531066 14.545593 24.041016 18.878906 19.638357 22.356318 23.036833 24.337851 24.039063 26.603516 21.468903 24.284822 19.583181 22.243432 20.847656 20.34375 22.704507 17.555594 27.849293 16.203545 26.712891 11.726563zM30.109375 17.265625C24.195513 20.695287 25.288069 21.689446 26.712891 23.691406 28.237891 25.839136 24.917969 27.552734 24.917969 27.552734 24.917969 27.552734 26.568572 26.19799 25.259766 24.691406 20.826275 19.582515 30.109435 17.265625 30.109375 17.265625zM31.892578 26.394531C34.454109 26.517362 35.624487 30.163807 29.679688 31.726563 29.679626 31.726563 29.757671 31.656732 29.78125 31.59375 34.869264 28.950524 32.515143 26.409785 30.873047 26.751953 30.471491 26.835753 30.292969 26.908203 30.292969 26.908203 30.292969 26.908203 30.441682 26.675059 30.726563 26.574219 31.132641 26.431524 31.526645 26.376984 31.892578 26.394531zM20.603516 26.650391C20.819745 26.644734 20.939453 26.652344 20.939453 26.652344 20.939453 26.652344 16.010245 27.822496 19.193359 28.248047 20.537797 28.427949 23.218047 28.387215 25.714844 28.177734 27.754777 28.00653 29.800781 27.640625 29.800781 27.640625 29.800781 27.640625 29.082891 27.947608 28.5625 28.302734 23.556908 29.619278 13.888158 29.006154 16.671875 27.660156 18.436721 26.80637 19.954827 26.667361 20.603516 26.650391zM19.791016 29.728516C19.791016 29.728516 18.629389 30.588043 20.404297 30.771484 22.700076 31.008495 24.512509 31.027722 27.650391 30.423828 27.650391 30.423828 28.083748 30.8651 28.765625 31.105469 22.347809 32.982716 15.199038 31.252557 19.791016 29.728516zM20.441406 32.697266C20.441406 32.697266 19.406099 33.300489 21.179688 33.503906 23.328678 33.749255 24.425505 33.713131 26.792969 33.265625 26.792969 33.265625 27.417591 33.656232 28.287109 33.994141 22.978161 36.268685 16.27186 33.862282 20.441406 32.697266zM17.744141 34.666016C18.000109 34.675863 18.211204 34.723647 18.345703 34.818359 18.345703 34.818359 18.005231 34.795095 17.410156 34.923828 16.839436 35.047102 15.02537 35.629669 15.992188 36.050781 18.683583 37.221497 28.373882 36.941617 31.4375 36.013672 33.048643 35.524894 32.28125 34.892578 32.28125 34.892578 35.088362 36.159213 26.182848 38.703611 15.359375 36.949219 11.886543 36.385644 15.952361 34.597083 17.744141 34.666016zM34 36.273438C33.822497 38.584094 26.322251 39.069987 21.439453 38.757813 18.230365 38.551276 17.605469 38.035156 17.605469 38.035156 20.653971 38.538511 25.796857 38.630399 29.964844 37.845703 33.65935 37.150688 34 36.273438 34 36.273438z" fill="#5382a1"/></svg>
